humanity-icon-theme/Humanity/status/48/dialog-warning.svg

<?xml version="1.0" encoding="UTF-8" standalone="no"?>
<!-- Created with Inkscape (http://www.inkscape.org/) -->

<svg
   xmlns:svg="http://www.w3.org/2000/svg"
   xmlns="http://www.w3.org/2000/svg"
   xmlns:xlink="http://www.w3.org/1999/xlink"
   version="1.1"
   width="48"
   height="48"
   id="svg7299">
  <defs
     id="defs7301">
    <filter
       x="-0.028342649"
       y="-0.41569221"
       width="1.0566853"
       height="1.8313844"
       color-interpolation-filters="sRGB"
       id="filter11277">
      <feGaussianBlur
         stdDeviation="0.51961525"
         id="feGaussianBlur11279" />
    </filter>
    <filter
       x="-0.085027948"
       y="-1.2470766"
       width="1.1700559"
       height="3.4941533"
       color-interpolation-filters="sRGB"
       id="filter11267">
      <feGaussianBlur
         stdDeviation="1.5588457"
         id="feGaussianBlur11269" />
    </filter>
    <linearGradient
       x1="4.1914001"
       y1="11.1133"
       x2="47.319698"
       y2="56.052299"
       id="linearGradient11223"
       gradientUnits="userSpaceOnUse">
      <stop
         id="stop11225"
         style="stop-color:white;stop-opacity:1"
         offset="0" />
      <stop
         id="stop11227"
         style="stop-color:white;stop-opacity:0"
         offset="1" />
    </linearGradient>
    <linearGradient
       x1="29.126724"
       y1="19.787613"
       x2="29.291178"
       y2="57.567127"
       id="linearGradient2864"
       xlink:href="#linearGradient11223"
       gradientUnits="userSpaceOnUse"
       gradientTransform="matrix(1.0615321,0,-0.00462081,1.1117136,-6.827518,-19.998157)" />
    <linearGradient
       id="linearGradient7012-661-145-733-759-865-745-661-970-94">
      <stop
         id="stop3618"
         style="stop-color:#edd563;stop-opacity:1"
         offset="0" />
      <stop
         id="stop3620"
         style="stop-color:#e08223;stop-opacity:1"
         offset="1" />
    </linearGradient>
    <linearGradient
       id="linearGradient3390-178-986-453">
      <stop
         id="stop3624"
         style="stop-color:#bb5e12;stop-opacity:1"
         offset="0" />
      <stop
         id="stop3626"
         style="stop-color:#cd8033;stop-opacity:1"
         offset="1" />
    </linearGradient>
    <linearGradient
       x1="24"
       y1="-3"
       x2="24"
       y2="47"
       id="linearGradient4268"
       xlink:href="#linearGradient7012-661-145-733-759-865-745-661-970-94"
       gradientUnits="userSpaceOnUse" />
    <linearGradient
       x1="20"
       y1="47"
       x2="20"
       y2="-3"
       id="linearGradient4276"
       xlink:href="#linearGradient3390-178-986-453"
       gradientUnits="userSpaceOnUse" />
  </defs>
  <rect
     width="44"
     height="3"
     rx="3.25"
     ry="1.5"
     x="298"
     y="91"
     transform="matrix(1,0,0,1.3333333,-296,-79.833758)"
     id="rect11271"
     style="opacity:0.3;fill:black;fill-opacity:1;stroke:none;display:inline;filter:url(#filter11277);enable-background:new" />
  <rect
     width="44"
     height="3"
     rx="3.25"
     ry="1.8387098"
     x="298"
     y="91"
     transform="matrix(1,0,0,1.2916666,-296,-76.417082)"
     id="rect11249"
     style="opacity:0.5;fill:black;fill-opacity:1;stroke:none;display:inline;filter:url(#filter11267);enable-background:new" />
  <g
     transform="matrix(0.02362979,0,0,0.02179773,45.017169,39.321893)"
     id="g11139"
     style="display:inline" />
  <g
     transform="matrix(0.02362979,0,0,0.02179773,45.017169,39.321893)"
     id="g11147"
     style="display:inline" />
  <path
     d="M 46.178835,39.999014 26.648631,3.1436738 C 26.087274,2.1199145 25.071516,1.5511602 23.940269,1.5511602 c -1.13125,0 -2.152217,0.6825035 -2.722104,1.7062644 L 1.8333958,40.112766 c -0.456291,0.910008 -0.4615035,2.161269 0.1003316,3.071278 0.5618322,0.910009 1.4649371,1.365012 2.596187,1.365012 l 38.9149676,0 c 1.131247,0 2.151741,-0.568754 2.608035,-1.478764 0.569414,-0.910008 0.574151,-2.047518 0.125922,-3.071278 z"
     id="path11155"
     style="fill:url(#linearGradient4268);fill-opacity:1;fill-rule:nonzero;stroke:url(#linearGradient4276);stroke-width:1.0000006;stroke-miterlimit:4;stroke-opacity:1;stroke-dasharray:none" />
  <path
     d="M 44.54211,39.209205 26.169987,4.4763134 C 25.387534,2.9800591 25.106886,2.5000008 23.91778,2.5000008 c -1.022723,0 -1.557843,0.6991415 -2.296915,2.111484 L 3.4526605,39.316408 c -1.0549914,1.948476 -1.1680244,2.456373 -0.6602242,3.313975 0.5077974,0.857604 1.1597849,0.810895 3.5688175,0.866836 l 35.7085152,0 c 2.242766,0.02797 2.747966,-0.144407 3.160618,-1.002006 0.514923,-0.857606 0.295902,-1.53801 -0.688277,-3.286008 z"
     id="path11159"
     style="opacity:0.4;fill:none;stroke:url(#linearGradient2864);stroke-width:1.00000072;stroke-miterlimit:4;stroke-opacity:1;stroke-dasharray:none" />
  <g
     transform="translate(51.138136,1.5686178)"
     id="g3243">
    <path
       d="m -29.450843,12.554367 c 0.562985,5.499325 1.207856,10.960802 1.687101,16.481667 0.482028,0 1.047391,0 1.529419,0 0.39752,-5.301782 1.038697,-10.571527 1.501221,-15.866736 0.235772,-1.253831 -0.407984,-2.74252 -1.731999,-3.047145 -1.308328,-0.3825154 -2.770054,0.564714 -2.944023,1.917755 -0.02885,0.169852 -0.04172,0.342238 -0.04172,0.514459 l -1e-6,0 z m -0.166856,22.358706 c -0.05953,1.636939 1.741632,2.920137 3.279478,2.401164 1.489513,-0.380147 2.274063,-2.252289 1.510684,-3.583058 -0.683355,-1.375642 -2.687256,-1.828891 -3.840007,-0.776055 -0.582694,0.478722 -0.968913,1.193389 -0.950154,1.95795 l -1e-6,-1e-6 z"
       id="path3295"
       style="font-size:62.4582634px;font-style:normal;font-variant:normal;font-weight:normal;font-stretch:normal;text-align:start;line-height:125%;writing-mode:lr-tb;text-anchor:start;opacity:0.2;fill:black;fill-opacity:1;stroke:none;font-family:Georgia" />
    <path
       d="m -29.450843,13.554676 c 0.562985,5.499325 1.207856,10.960802 1.687101,16.481667 0.482028,0 1.047391,0 1.529419,0 0.39752,-5.301782 1.038697,-10.571527 1.501221,-15.866736 0.235772,-1.253831 -0.407984,-2.74252 -1.731999,-3.047145 -1.308328,-0.382515 -2.770054,0.564714 -2.944023,1.917755 -0.02885,0.169852 -0.04172,0.342238 -0.04172,0.514459 l -1e-6,0 z m -0.166856,22.358706 c -0.05953,1.636939 1.741632,2.920137 3.279478,2.401164 1.489513,-0.380147 2.274063,-2.252289 1.510684,-3.583058 -0.683355,-1.375642 -2.687256,-1.828891 -3.840007,-0.776055 -0.582694,0.478722 -0.968913,1.193389 -0.950154,1.95795 l -1e-6,-1e-6 z"
       id="text2315"
       style="font-size:62.4582634px;font-style:normal;font-variant:normal;font-weight:normal;font-stretch:normal;text-align:start;line-height:125%;writing-mode:lr-tb;text-anchor:start;fill:white;fill-opacity:1;stroke:none;font-family:Georgia" />
  </g>
</svg>

<?xml version="1.0" encoding="UTF-8" standalone="no"?>
<!-- Created with Inkscape (http://www.inkscape.org/) -->
<svg
   xmlns:svg="http://www.w3.org/2000/svg"
   xmlns="http://www.w3.org/2000/svg"
   xmlns:xlink="http://www.w3.org/1999/xlink"
   version="1.0"
   width="48"
   height="48"
   id="svg3247">
  <defs
     id="defs3249">
    <linearGradient
       id="linearGradient4873">
      <stop
         id="stop4875"
         style="stop-color:#ffffff;stop-opacity:1"
         offset="0" />
      <stop
         id="stop4877"
         style="stop-color:#ffffff;stop-opacity:0"
         offset="1" />
    </linearGradient>
    <linearGradient
       x1="63.397362"
       y1="-12.489107"
       x2="63.397362"
       y2="5.4675598"
       id="linearGradient2411"
       xlink:href="#linearGradient4873"
       gradientUnits="userSpaceOnUse"
       gradientTransform="matrix(2.1153735,0,0,2.1153253,-107.57709,32.426559)" />
    <linearGradient
       id="linearGradient2490">
      <stop
         id="stop2492"
         style="stop-color:#791235;stop-opacity:1"
         offset="0" />
      <stop
         id="stop2494"
         style="stop-color:#dd3b27;stop-opacity:1"
         offset="1" />
    </linearGradient>
    <linearGradient
       x1="18.379412"
       y1="44.980297"
       x2="18.379412"
       y2="3.0816143"
       id="linearGradient2416"
       xlink:href="#linearGradient2490"
       gradientUnits="userSpaceOnUse"
       gradientTransform="matrix(0.9584364,0,0,0.9584366,0.9975246,1.9975253)" />
    <linearGradient
       id="linearGradient3242">
      <stop
         id="stop3244"
         style="stop-color:#f8b17e;stop-opacity:1"
         offset="0" />
      <stop
         id="stop3246"
         style="stop-color:#e35d4f;stop-opacity:1"
         offset="0.26238" />
      <stop
         id="stop3248"
         style="stop-color:#c6262e;stop-opacity:1"
         offset="0.66093999" />
      <stop
         id="stop3250"
         style="stop-color:#690b54;stop-opacity:1"
         offset="1" />
    </linearGradient>
    <radialGradient
       cx="23.895569"
       cy="3.9900031"
       r="20.397499"
       fx="23.895569"
       fy="3.9900031"
       id="radialGradient2414"
       xlink:href="#linearGradient3242"
       gradientUnits="userSpaceOnUse"
       gradientTransform="matrix(0,2.2874593,-3.0194057,0,36.047437,-50.630156)" />
    <linearGradient
       id="linearGradient8838">
      <stop
         id="stop8840"
         style="stop-color:#000000;stop-opacity:1"
         offset="0" />
      <stop
         id="stop8842"
         style="stop-color:#000000;stop-opacity:0"
         offset="1" />
    </linearGradient>
    <radialGradient
       cx="62.625"
       cy="4.625"
       r="10.625"
       fx="62.625"
       fy="4.625"
       id="radialGradient2419"
       xlink:href="#linearGradient8838"
       gradientUnits="userSpaceOnUse"
       gradientTransform="matrix(2.1647059,0,0,0.7529402,-111.56471,36.517647)" />
  </defs>
  <g
     id="layer1">
    <g
       id="g3275">
      <path
         d="M 46.999997,40 C 46.999997,44.418278 36.702545,48 23.999997,48 C 11.297449,48 0.9999968,44.418278 0.9999968,40 C 0.9999968,35.581722 11.297449,32 23.999997,32 C 36.702545,32 46.999997,35.581722 46.999997,40 L 46.999997,40 z"
         id="path8836"
         style="opacity:0.3;fill:url(#radialGradient2419);fill-opacity:1;fill-rule:evenodd;stroke:none;stroke-width:0.99999988;stroke-linecap:butt;stroke-linejoin:round;marker:none;marker-start:none;marker-mid:none;marker-end:none;stroke-miterlimit:4;stroke-dasharray:none;stroke-dashoffset:0;stroke-opacity:1;visibility:visible;display:inline;overflow:visible" />
      <path
         d="M 24.000002,5.5018088 C 13.241573,5.5018088 4.5018088,14.24157 4.5018088,25 C 4.5018088,35.75843 13.241573,44.498195 24.000002,44.498192 C 34.758427,44.498192 43.498201,35.75843 43.498191,25 C 43.498191,14.24157 34.758427,5.5018088 24.000002,5.5018088 z"
         id="path2555"
         style="fill:url(#radialGradient2414);fill-opacity:1;stroke:url(#linearGradient2416);stroke-width:1.003654;stroke-linecap:round;stroke-linejoin:round;stroke-miterlimit:4;stroke-dasharray:none;stroke-dashoffset:0;stroke-opacity:1" />
      <path
         d="M 42.500002,24.999344 C 42.500002,35.216942 34.21666,43.5 24.000235,43.5 C 13.782875,43.5 5.5000003,35.216848 5.5000003,24.999344 C 5.5000003,14.782219 13.782875,6.5000001 24.000235,6.5000001 C 34.21666,6.5000001 42.500002,14.782219 42.500002,24.999344 L 42.500002,24.999344 z"
         id="path8655"
         style="opacity:0.4;fill:none;fill-opacity:1;fill-rule:nonzero;stroke:url(#linearGradient2411);stroke-width:1;stroke-miterlimit:4;stroke-dasharray:none;stroke-opacity:1" />
    </g>
    <g
       transform="translate(51.0751,0.5686178)"
       id="g3243">
      <path
         d="M -29.450843,12.554367 C -28.887858,18.053692 -28.242987,23.515169 -27.763742,29.036034 C -27.281714,29.036034 -26.716351,29.036034 -26.234323,29.036034 C -25.836803,23.734252 -25.195626,18.464507 -24.733102,13.169298 C -24.49733,11.915467 -25.141086,10.426778 -26.465101,10.122153 C -27.773429,9.7396376 -29.235155,10.686867 -29.409124,12.039908 C -29.437976,12.20976 -29.450848,12.382146 -29.450842,12.554367 L -29.450843,12.554367 z M -29.617699,34.913073 C -29.677232,36.550012 -27.876067,37.83321 -26.338221,37.314237 C -24.848708,36.93409 -24.064158,35.061948 -24.827537,33.731179 C -25.510892,32.355537 -27.514793,31.902288 -28.667544,32.955124 C -29.250238,33.433846 -29.636457,34.148513 -29.617698,34.913074 L -29.617699,34.913073 z"
         id="path3295"
         style="font-size:62.4582634px;font-style:normal;font-variant:normal;font-weight:normal;font-stretch:normal;text-align:start;line-height:125%;writing-mode:lr-tb;text-anchor:start;opacity:0.2;fill:#000000;fill-opacity:1;stroke:none;stroke-width:0.5;stroke-linecap:round;stroke-linejoin:round;stroke-miterlimit:4;stroke-dasharray:none;stroke-opacity:1;font-family:Georgia" />
      <path
         d="M -29.450843,13.554676 C -28.887858,19.054001 -28.242987,24.515478 -27.763742,30.036343 C -27.281714,30.036343 -26.716351,30.036343 -26.234323,30.036343 C -25.836803,24.734561 -25.195626,19.464816 -24.733102,14.169607 C -24.49733,12.915776 -25.141086,11.427087 -26.465101,11.122462 C -27.773429,10.739947 -29.235155,11.687176 -29.409124,13.040217 C -29.437976,13.210069 -29.450848,13.382455 -29.450842,13.554676 L -29.450843,13.554676 z M -29.617699,35.913382 C -29.677232,37.550321 -27.876067,38.833519 -26.338221,38.314546 C -24.848708,37.934399 -24.064158,36.062257 -24.827537,34.731488 C -25.510892,33.355846 -27.514793,32.902597 -28.667544,33.955433 C -29.250238,34.434155 -29.636457,35.148822 -29.617698,35.913383 L -29.617699,35.913382 z"
         id="text2315"
         style="font-size:62.4582634px;font-style:normal;font-variant:normal;font-weight:normal;font-stretch:normal;text-align:start;line-height:125%;writing-mode:lr-tb;text-anchor:start;fill:#ffffff;fill-opacity:1;stroke:none;stroke-width:0.5;stroke-linecap:round;stroke-linejoin:round;stroke-miterlimit:4;stroke-dasharray:none;stroke-opacity:1;font-family:Georgia" />
    </g>
  </g>
</svg>
